!!!COM:	Martini, Johannes
!!!CDT:	~1440///-~1497//
!!!OPR:	Missa In feuers hitz
!!!ONM:	3
!!!OTL:	Credo
!!!AGN:	Mass; Credo
!!!SCT:	Mar1007c
!!!SCA:	Mar1007c
!!!voices:	3
!!!voices-OPR:	3
**kern	**kern	**kern
*staff3	*staff2	*staff1
*Ivox	*Ivox	*Ivox
*I"Contra	*I"Tenor	*I"Superius
*I'C	*I'T	*I'S
*>[A,B]	*>[A,B]	*>[A,B]
*>A	*>A	*>A
*clefGv2	*clefGv2	*clefG2
*k[]	*k[]	*k[]
*M2/1	*M2/1	*M2/1
*met(C)	*met(C)	*met(C)
=1-	=1-	=1-
!!section: Patrem omnipotentem
!!!OMD: Patrem omnipotentem
0r	[0c	1cc
.	.	2cc\
.	.	2cc\
=2	=2	=2
1c	0c_	1.ee
2c\	.	.
2c\	.	2dd\
=3	=3	=3
1.e	0c]	2cc\
.	.	4b\
.	.	4a/
.	.	1g
2d\	.	.
=4	=4	=4
2c\	1e	1g
2B\	.	.
1A	1f	1a
=5	=5	=5
0G	0g	1b
.	.	2r
.	.	2g/
=6	=6	=6
0r	1e	2g/
.	.	2g/
.	1f	1a
=7	=7	=7
2r	0e	1g
2g\	.	.
2g\	.	2r
2g\	.	2b\
=8	=8	=8
2a\	1c	2cc\
2a\	.	2cc\
2g\	2r	2b\
2g\	2G/	2b\
=9	=9	=9
1d	1G	2dd\
.	.	2dd\
2r	1G	1dd
2g\	.	.
=10	=10	=10
2e\	1A	1cc
2f\	.	.
1g	1G	1b
=11	=11	=11
1f	1d	1a
2e\	2c\	2a/
2f\	2d\	[2b\
=12	=12	=12
2g\	1G	4b\]
.	.	4a/
1d	.	1g
.	1A	.
2c\	.	2f#i/
=13	=13	=13
1d	1G	1g
2G/	1d	1r
2B\	.	.
=14	=14	=14
2A/	2c\	0r
2d\	2B\	.
2c\	2A/	.
[2B\	2G/	.
=15	=15	=15
4B\]	1B	0r
4A/	.	.
1G	.	.
.	1A	.
2F#i/	.	.
=16	=16	=16
2G/	1G	1dd
2g\	.	.
2e\	1r	2cc\
2d\	.	2b\
=17	=17	=17
2f\	0r	2a/
2e\	.	2g/
2d\	.	1b
[2g\	.	.
=18	=18	=18
2g\]	1r	1a
2f#i\	.	.
2g\	1g	1g
2c\	.	.
=19	=19	=19
2d\	2f\	0r
2c\	2e\	.
2B\	2d\	.
[2e\	2c\	.
=20	=20	=20
4e\]	1e	0r
4d\	.	.
1c	.	.
.	1d	.
2B\	.	.
=21	=21	=21
1c	1c	2r
.	.	1gg
1r	1r	.
.	.	2ff\
=22	=22	=22
2r	0r	2ee\
1g	.	2ee\
.	.	1dd
2f\	.	.
=23	=23	=23
2e\	2r	1cc
2e\	1g	.
1d	.	1r
.	2f\	.
=24	=24	=24
1c	2e\	2r
.	4e\	2g/
.	4e\	.
1r	2d\	2a/
.	2d\	2b\
=25	=25	=25
1r	1c	2cc\
.	.	2cc\
2r	1r	2dd\
2G/	.	2b\
=26	=26	=26
2A/	0r	2cc\
2B\	.	2dd\
2c\	.	2ee\
2c\	.	4dd\
.	.	4cc\
=27	=27	=27
2d\	2r	1b
2B\	2G/	.
2c\	2A/	1r
2d\	2B\	.
=28	=28	=28
2e\	2c\	1r
4d\	2c\	.
4c\	.	.
1B	2d\	2r
.	2B\	2dd\
=29	=29	=29
0r	2c\	2ee\
.	2d\	2ff\
.	2e\	2gg\
.	4d\	4ff\
.	4c\	4ee\
=30	=30	=30
2r	1B	1dd
2d\	.	.
2e\	1r	2cc\
2f\	.	4b\
.	.	4a/
=31	=31	=31
2g\	1r	2g/
4f\	.	1cc
4e\	.	.
1d	2r	.
.	2d\	2b\
=32	=32	=32
2c\	2e\	1cc
4B\	2f\	.
4A/	.	.
2G/	2g\	2r
[2c\	4f\	[2g/
.	4e\	.
=33	=33	=33
2c\]	1d	2g/]
2B\	.	2f/
1c	2c\	2e/
.	4B\	[2g/
.	4A/	.
=34	=34	=34
1g	2G/	4g/]
.	.	4f/
.	1c	2e/
2a\	.	1d
2g\	2B\	.
=35	=35	=35
1e	1c	1c
2e\	1r	1g
2e\	.	.
=36	=36	=36
1f	0r	2a/
.	.	2g/
1g	.	1e
=37	=37	=37
2c\	1g	2e/
2e\	.	2e/
1d	2a\	1f
.	2g\	.
=38	=38	=38
1.c	1e	1g
.	2e\	2r
2B\	2e\	2g/
=39	=39	=39
1A	1f	1a
1G	1g	2b\
.	.	[2dd\
=40	=40	=40
2A/	2c\	4dd\]
.	.	4cc\
2c\	2e\	1cc
1G	1d	.
.	.	2b\
=41	=41	=41
2g\	1.c	1cc
2.a\	.	.
.	.	1r
4g\	.	.
[2g\	2B\	.
=42	=42	=42
2g\]	1A	2r
2f#i\	.	2cc\
1g	[1G	2b\
.	.	2cc\
=43	=43	=43
2r	1G]	2dd\
2d\	.	2dd\
2e\	2r	1g
2e\	2c\	.
=44	=44	=44
2.d\	2B\	2r
.	2c\	2a/
4c\	.	.
1G	2d\	2b\
.	2d\	2cc\
=45	=45	=45
2r	1G	1dd
2B\	.	.
1c	2r	1ee
.	2A/	.
=46	=46	=46
2d\	2B\	2dd\
2g\	2c\	2r
2f\	1d	2ff\
4e\	.	2ff\
4d\	.	.
=47	=47	=47
1c	2e\	2gg\
.	2e\	2gg\
2r	1d	2ff\
2B-\	.	4ee\
.	.	4dd\
=48	=48	=48
2A/	2r	1cc
2c\	2e\	.
1d	2f\	1a
.	2f\	.
=49	=49	=49
2G/	1g	2g/
1B	.	2.dd\
.	2f\	.
.	.	4cc\
2c\	2e\	[2cc\
=50	=50	=50
1G	1d	2cc\]
.	.	2b\
1gl	1cl	1ccl
!!LO:LB:i:g=z
=51||	=51||	=51||
*>B	*>B	*>B
*clefGv2	*clefGv2	*clefG2
*k[]	*k[]	*k[]
*M2/1	*M2/1	*M2/1
*met(C)	*met(C)	*met(C)
!!section: Crucifixus
!!!OMD: Crucifixus
0r	[0c	1g
.	.	1g
=52	=52	=52
0r	0c_	1a
.	.	1g
=53	=53	=53
1g	0c_	1e
1g	.	2e/
.	.	[2g/
=54	=54	=54
1a	0c]	2g/]
.	.	2f/
1g	.	2.e/
.	.	4d/
=55	=55	=55
1e	[0c	1c
2e\	.	2r
[2g\	.	[2e/
=56	=56	=56
2g\]	0c_	2e/]
2f\	.	2f/
2.e\	.	2g/
.	.	2g/
4d\	.	.
=57	=57	=57
1c	0c]	2a/
.	.	2a/
2r	.	1g
[2e\	.	.
=58	=58	=58
2e\]	1r	1.cc
2f\	.	.
2g\	[1c	.
2g\	.	2g/
=59	=59	=59
2a\	2c\]	2cc\
2g\	2G/	2dd\
1g	2c\	2ee\
.	2d\	2ee\
=60	=60	=60
1r	2e\	1cc
.	2e\	.
1e	1c	1r
=61	=61	=61
1f	0r	1r
1e	.	1ee
=62	=62	=62
1d	0r	1ff
1c	.	1ee
=63	=63	=63
1G	1g	1dd
[1A	2e\	1cc
.	[2f\	.
=64	=64	=64
2A/]	2f\]	0r
2G/	2g\	.
2A/	1e	.
[2c\	.	.
=65	=65	=65
2c\]	1d	1r
2B\	.	.
1c	1c	1gg
=66	=66	=66
0r	0r	2ee\
.	.	2ff\
.	.	2ff\
.	.	2gg\
=67	=67	=67
1g	0r	1ee
1g	.	1dd
=68	=68	=68
2e\	0r	2cc\
1f	.	2cc\
.	.	2a/
2g\	.	2b\
=69	=69	=69
1e	0r	2g/
.	.	1cc
1d	.	.
.	.	2b\
=70	=70	=70
1c	[0c	1cc
1r	.	2r
.	.	2g/
=71	=71	=71
0r	0c]	2g/
.	.	2a/
.	.	2g/
.	.	2f/
=72	=72	=72
0r	0B	2g/
.	.	4f/
.	.	4e/
.	.	1d
=73	=73	=73
2r	1c	2c/
2g\	.	2e/
2g\	1r	2e/
2a\	.	2f/
=74	=74	=74
2g\	0r	2e/
2f\	.	2d/
2g\	.	2e/
4f\	.	4d/
4e\	.	4c/
=75	=75	=75
1d	1r	1B
2c\	2r	1c
2e\	2g\	.
=76	=76	=76
2e\	2g\	0r
2f\	2a\	.
2e\	2g\	.
2d\	2f\	.
=77	=77	=77
2e\	2g\	0r
4d\	4f\	.
4c\	4e\	.
2.B\	1d	.
4A/	.	.
=78	=78	=78
0c	[0c	2r
.	.	2c/
.	.	2e/
.	.	2f/
=79	=79	=79
2r	1c]	1g
2c\	.	.
2e\	2r	1c
2f\	2c\	.
=80	=80	=80
1g	2e\	0r
.	2f\	.
1c	1g	.
=81	=81	=81
1r	1c	2r
.	.	2cc\
2r	1r	1ee
2c\	.	.
=82	=82	=82
1e	1r	2ee\
.	.	2ee\
2e\	2r	1cc
2e\	2c\	.
=83	=83	=83
1c	1e	1r
1r	2e\	1g
.	2e\	.
=84	=84	=84
0r	1c	2a/
.	.	1cc
.	1r	.
.	.	2dd\
=85	=85	=85
1G	0r	1b
2A/	.	2cc\
[2c\	.	[2ee\
=86	=86	=86
2c\]	1r	2ee\]
2d\	.	2ff\
2B\	1G	1dd
2B\	.	.
=87	=87	=87
2c\	2A/	1.cc
1e	1c	.
2f\	2d\	2a/
=88	=88	=88
1d	2B\	1dd
.	2B\	.
[1c	2c\	1g
.	[2e\	.
=89	=89	=89
2c\]	2e\]	2cc\
2F/	2f\	1cc
1G	1d	.
.	.	2b\
=90	=90	=90
1r	[0c	0cc
1g	.	.
=91	=91	=91
1a	0c_	1r
2g\	.	1g
[2e\	.	.
=92	=92	=92
2e\]	0c]	1a
2f\	.	.
2g\	.	2g/
2g\	.	[2e/
=93	=93	=93
1c	0r	2e/]
.	.	2f/
2r	.	1g
[2c\	.	.
=94	=94	=94
2c\]	1g	1c
2B\	.	.
2A/	1a	1cc
2F/	.	.
=95	=95	=95
2G/	2g\	2b\
1c	1e	1g
2A/	2f\	2a/
=96	=96	=96
1G	1g	1b
2r	1c	2cc\
[2g\	.	2b\
=97	=97	=97
2g\]	1r	1a
2f#i\	.	.
[1g	[1G	1g
=98	=98	=98
2g\]	1G]	2b\
2g\	.	2b\
1g	1G	2b\
.	.	2b\
=99	=99	=99
1.f	1d	1a
.	1d	2f/
2d\	.	[2a/
=100	=100	=100
1e	1c	2a/]
.	.	2g/
[1d	1B	[1g
=101	=101	=101
2d\]	1A	2g/]
4c\	.	4f#i/
4B\	.	4e/
1c	1A	1f#i
=102	=102	=102
1d	[0G	[0g
2r	.	.
2d\	.	.
=103	=103	=103
2d\	1G]	0g]
2d\	.	.
1e	1r	.
=104	=104	=104
1d	2r	0r
.	2d\	.
1B	2d\	.
.	2d\	.
=105	=105	=105
2c\	1e	1r
2B\	.	.
1G	1d	2r
.	.	2dd\
=106	=106	=106
0r	1B	2dd\
.	.	2dd\
.	2c\	2ee\
.	2B\	2ee\
=107	=107	=107
1g	1G	1dd
2g\	1r	1b
2g\	.	.
=108	=108	=108
2e\	1g	2.cc\
2c\	.	.
.	.	4b\
2e\	2g\	1g
2f\	2g\	.
=109	=109	=109
1g	2e\	1gg
.	2c\	.
1c	2e\	2gg\
.	2f\	2gg\
=110	=110	=110
0r	1g	2ee\
.	.	2cc\
.	1c	2ee\
.	.	2ff\
=111	=111	=111
1G	0r	1gg
2A/	.	1cc
[2c\	.	.
=112	=112	=112
2c\]	1G	0r
2B\	.	.
2c\	2A/	.
2e\	[2c\	.
=113	=113	=113
1d	2c\]	1g
.	2B\	.
1c	2c\	2a/
.	2e\	[2cc\
=114	=114	=114
1G	1d	2cc\]
.	.	2b\
2r	1c	2cc\
2c\	.	2ee\
=115	=115	=115
2d\	1r	1dd
2f\	.	.
2e\	2r	1cc
4d\	2c\	.
4c\	.	.
=116	=116	=116
2.B\	2d\	1r
.	2f\	.
4A/	.	.
1c	2e\	2r
.	4d\	2cc\
.	4c\	.
=117	=117	=117
1r	2.B\	2dd\
.	.	2ff\
.	4A/	.
1A	1c	2ee\
.	.	4dd\
.	.	4cc\
=118	=118	=118
1G	1d	2.b\
.	.	4a/
1e	1c	1cc
=119	=119	=119
1d	1r	1dd
2e\	1e	1cc
[2g\	.	.
=120	=120	=120
2g\]	1d	1r
2f\	.	.
1g	2e\	1ee
.	[2g\	.
=121	=121	=121
2r	2g\]	1dd
2d\	2f\	.
2c\	1g	2ee\
2e\	.	[2gg\
=122	=122	=122
1d	1a	2gg\]
.	.	2ff#i\
1G	1g	1gg
=123	=123	=123
1g	1c	1ee
2g\	[1c	[1ee
[2a\	.	.
=124	=124	=124
4a\]	2c\]	2ee\]
4g\	.	.
1g	2B\	2dd\
.	1A	1cc
2f#i\	.	.
=125	=125	=125
1g	1G	1b
1f	1d	1a
=126	=126	=126
1d	1B	2b\
.	.	1dd
2d\	1G	.
[2e\	.	4cc\
.	.	4b\
=127	=127	=127
4e\]	0A	4cc\
4d\	.	4b\
4c\	.	4a/
4B\	.	4g/
1c	.	2.f#i/
.	.	4e/
=128	=128	=128
1d	0G	0g
[1c	.	.
=129	=129	=129
2c\]	0g	1r
1G	.	.
.	.	1b
2G/	.	.
=130	=130	=130
1d	1f	1a
1c	1e	1cc
=131	=131	=131
1B	1d	1dd
1A	1c	[1ee
=132	=132	=132
0c	0e	2ee\]
.	.	2dd\
.	.	[1cc
=133	=133	=133
0G	0d	1cc]
.	.	1b
=134	=134	=134
0gl	0cl	0ccl
==	==	==
*-	*-	*-
!!!RDF**kern: l=long note in original notation
!!!RDF**kern: i=editorial accidental
!!!ENC:	Chris Gage 10-02-2014
!!!END:	2015/03/07/
!!!EED:	Jesse Rodin
!!!EEV:	2015/03/09/
!!!ONB:	Translated from MusicXML and edited on 2015/03/09/ by Craig Sapp
!!muse2ps: T^@{OPR}^u^@{ONM}{. }@{OTL}^C^@{COM}^i2I150v95,95,150Q16
